src/categories-icons-sprite/categories/svg-cat-home-tools.svg

<svg width="34" height="38" viewBox="0 0 34 38" fill="none" xmlns="http://www.w3.org/2000/svg">
<path class="p-888890" d="M19.4355 36.8867V1.11328C19.4355 0.498433 18.9371 0 18.3223 0C17.7074 0 17.209 0.498433 17.209 1.11328V36.8867C17.209 37.5016 17.7074 38 18.3223 38C18.9371 38 19.4355 37.5016 19.4355 36.8867Z" fill="#A1D1FD"/>
<path class="p-56535A" d="M19.4355 37.4434V1.11328C19.4355 0.498433 18.9371 0 18.3223 0V37.4434C18.3223 37.7508 18.5715 38 18.8789 38C19.1863 38 19.4355 37.7508 19.4355 37.4434Z" fill="#4D98CB"/>
<path class="p-888890" d="M8.67383 24.418V1.11328C8.67383 0.498433 8.17539 0 7.56055 0C6.9457 0 6.44727 0.498434 6.44727 1.11328V24.418H8.67383Z" fill="#A1D1FD"/>
<path class="p-56535A" d="M8.67383 24.418V1.11328C8.67383 0.498433 8.1754 0 7.56055 0V24.418H8.67383Z" fill="#4D98CB"/>
<path class="p-FFDC40" d="M15.121 38H0L1.39932 26.1059C1.59719 24.4243 3.02315 23.1562 4.71623 23.1562H10.4048C12.098 23.1562 13.5238 24.4243 13.7218 26.1059L15.121 38Z" fill="#65B3E7"/>
<path class="p-DBB924" d="M7.56055 38H15.1211L13.7217 26.1059C13.5239 24.4243 12.0979 23.1562 10.4048 23.1562H7.56055V38Z" fill="#4D98CB"/>
<path class="p-00C3FF" d="M1.39854 26.1059L1.22168 27.6094H13.8979L13.7211 26.1059C13.6915 25.8545 13.6339 25.6128 13.5528 25.3828H1.56695C1.48568 25.6128 1.42816 25.8545 1.39854 26.1059Z" fill="#A1D1FD"/>
<path class="p-00AAF0" d="M7.56055 27.6094H13.8987L13.7218 26.1059C13.6923 25.8545 13.6347 25.6128 13.5535 25.3828H7.56055V27.6094Z" fill="#58ADE5"/>
<path class="p-FF6849" d="M33.166 38.0002H17.209V29.418L33.166 34.5932V38.0002Z" fill="#65B3E7"/>
<path class="p-E8130F" d="M25.1875 32.0054V37.9999H33.166V34.593L25.1875 32.0054Z" fill="#4D98CB"/>
</svg>

<svg width="34" height="38" fill="none" xmlns="http://www.w3.org/2000/svg"><path class="p-888890" d="M19.436 36.887V1.113a1.113 1.113 0 10-2.227 0v35.774a1.113 1.113 0 102.227 0z" fill="#A1D1FD"/><path class="p-56535A" d="M19.436 37.443V1.113C19.436.498 18.937 0 18.322 0v37.443a.557.557 0 001.114 0z" fill="#4D98CB"/><path class="p-888890" d="M8.674 24.418V1.113a1.113 1.113 0 00-2.227 0v23.305h2.227z" fill="#A1D1FD"/><path class="p-56535A" d="M8.674 24.418V1.113C8.674.498 8.175 0 7.56 0v24.418h1.113z" fill="#4D98CB"/><path class="p-FFDC40" d="M15.121 38H0l1.4-11.894a3.34 3.34 0 013.316-2.95h5.689a3.34 3.34 0 013.317 2.95L15.12 38z" fill="#65B3E7"/><path class="p-DBB924" d="M7.56 38h7.561l-1.4-11.894a3.34 3.34 0 00-3.316-2.95H7.56V38z" fill="#4D98CB"/><path class="p-00C3FF" d="M1.399 26.106l-.177 1.503h12.676l-.177-1.503a3.35 3.35 0 00-.168-.723H1.567c-.081.23-.139.472-.168.723z" fill="#A1D1FD"/><path class="p-00AAF0" d="M7.56 27.61H13.9l-.177-1.504a3.338 3.338 0 00-.168-.723H7.56v2.226z" fill="#58ADE5"/><path class="p-FF6849" d="M33.166 38H17.209v-8.582l15.957 5.175V38z" fill="#65B3E7"/><path class="p-E8130F" d="M25.188 32.005V38h7.978v-3.407l-7.978-2.588z" fill="#4D98CB"/></svg>
